X: 259
T:Ave Maria...virgo serena (\`a 4)
N: Derived from Jos2306-Ave_Maria_..._virgo_serena.krn
C: Josquin des Prez
%%abc-version 2.0
%%abcx-abcm2ps-target-version 5.9.1 (29 Sep 2008)
%%abc-creator hum2abc beta
%%abcx-conversion-date 2019/02/12 16:15:51
%%abc-edited-by Jesse Rodin
%%abc-edited-by Jesse Rodin; Victoria Chang 2011/05/17; JR 2013/02 (text)
%%abcx-initial-encoding-date 2013/03/08/
%%humdrum-veritas 2331842086
%%humdrum-veritas-data 2044555055
%%linebreak <none>
%%barnumbers 0
L: 1/4
M: 2/1
Q: 1/2=120
%%staves [1 2 3 4]
V: 1 clef=treble
V: 2 clef=treble-8
V: 3 clef=treble-8
V: 4 clef=bass
K: C
[V:1] G4c4- | 
[V:2] z8 | 
[V:3] z8 | 
[V:4] z8 | 
[V:1] c4c4 | 
[V:2] z8 | 
[V:3] z8 | 
[V:4] z8 | 
[V:1] d4e4 | 
[V:2] G4c4- | 
[V:3] z8 | 
[V:4] z8 | 
[V:1] c8 | 
[V:2] c4c4 | 
[V:3] z8 | 
[V:4] z8 | 
[V:1] z8 | 
[V:2] d4e4 | 
[V:3] G4c4- | 
[V:4] z8 | 
[V:1] z8 | 
[V:2] c8 | 
[V:3] c4c4 | 
[V:4] z8 | 
[V:1] z8 | 
[V:2] z8 | 
[V:3] d4e4 | 
[V:4] G,,4C,4- | 
[V:1] c6B2 | 
[V:2] z8 | 
[V:3] c8 | 
[V:4] C,4C,4 | 
[V:1] A4G4 | 
[V:2] z8 | 
[V:3] z8 | 
[V:4] D,4E,4 | 
[V:1] A2G2c4- | 
[V:2] c6B2 | 
[V:3] z8 | 
[V:4] C,8 | 
[V:1] c2BAB4 | 
[V:2] A4G4 | 
[V:3] z8 | 
[V:4] z8 | 
[V:1] c8 | 
[V:2] A3Gc4- | 
[V:3] c6B2 | 
[V:4] z8 | 
[V:1] z8 | 
[V:2] c2BAB4 | 
[V:3] A4G4 | 
[V:4] z8 | 
[V:1] z8 | 
[V:2] c8 | 
[V:3] A2G2c4- | 
[V:4] C,6B,,2 | 
[V:1] z8 | 
[V:2] z8 | 
[V:3] c2BAB4 | 
[V:4] A,,4G,,4 | 
[V:1] z4c4- | 
[V:2] z8 | 
[V:3] c8 | 
[V:4] A,,6B,,2 | 
[V:1] c2c2c4 | 
[V:2] z8 | 
[V:3] z8 | 
[V:4] C,8 | 
[V:1] d4e4 | 
[V:2] z4c4- | 
[V:3] z8 | 
[V:4] z8 | 
[V:1] c3BA2G2 | 
[V:2] c2c2c4 | 
[V:3] z8 | 
[V:4] z8 | 
[V:1] F4E2c2- | 
[V:2] d4e4 | 
[V:3] z4c4- | 
[V:4] z8 | 
[V:1] cBA4G2 | 
[V:2] c8 | 
[V:3] c2c2c4 | 
[V:4] z8 | 
[V:1] F4E4 | 
[V:2] z8 | 
[V:3] d4e4 | 
[V:4] z4C,4- | 
[V:1] z8 | 
[V:2] c8 | 
[V:3] c2e3dg2- | 
[V:4] C,2C,2C,4 | 
[V:1] z8 | 
[V:2] A4G4 | 
[V:3] g2^f2g4 | 
[V:4] D,4E,4 | 
[V:1] c8 | 
[V:2] A3Bc4- | 
[V:3] z8 | 
[V:4] C,8 | 
[V:1] A4G4 | 
[V:2] c2d2e4- | 
[V:3] c8 | 
[V:4] z8 | 
[V:1] c4d4 | 
[V:2] e2dcg3f | 
[V:3] A4G4 | 
[V:4] z8 | 
[V:1] e4z2e2- | 
[V:2] edc6 | 
[V:3] g3fedc2- | 
[V:4] C,8 | 
[V:1] edc4B2 | 
[V:2] e2f2g4 | 
[V:3] cBc2d4 | 
[V:4] A,,4G,,4 | 
[V:1] c8 | 
[V:2] e8 | 
[V:3] c8- | 
[V:4] A,,6B,,2 | 
[V:1] z4c4 | 
[V:2] z4c4 | 
[V:3] c8 | 
[V:4] C,8 | 
[V:1] c4d4 | 
[V:2] e4f4 | 
[V:3] z8 | 
[V:4] z8 | 
[V:1] e4e2f2- | 
[V:2] g4g2a2- | 
[V:3] z8 | 
[V:4] z8 | 
[V:1] fee4d2 | 
[V:2] a2g2f4 | 
[V:3] z8 | 
[V:4] z8 | 
[V:1] e8 | 
[V:2] e8 | 
[V:3] z4c4 | 
[V:4] z4C,4 | 
[V:1] z8 | 
[V:2] z4A4 | 
[V:3] c4d4 | 
[V:4] E,4F,4 | 
[V:1] z8 | 
[V:2] B6c2- | 
[V:3] e4e2f2- | 
[V:4] G,4G,2A,2- | 
[V:1] z8 | 
[V:2] cBB4A2 | 
[V:3] f2e4d2 | 
[V:4] A,2G,2F,4 | 
[V:1] z8 | 
[V:2] B8 | 
[V:3] e8 | 
[V:4] E,8 | 
[V:1] z4e4 | 
[V:2] z4c4 | 
[V:3] z4g4 | 
[V:4] z4C,4 | 
[V:1] e4e4 | 
[V:2] c4c4 | 
[V:3] g4g4 | 
[V:4] C,4C,4 | 
[V:1] f6e2 | 
[V:2] c6de | 
[V:3] a6g2 | 
[V:4] F,3E,F,2C,2 | 
[V:1] d4c4 | 
[V:2] f2d2g4- | 
[V:3] f4e4 | 
[V:4] D,2B,,2C,4 | 
[V:1] B4G4 | 
[V:2] g8 | 
[V:3] d4B2c2- | 
[V:4] G,6E,2 | 
[V:1] A4B4 | 
[V:2] f2a2g4 | 
[V:3] c2d4e2- | 
[V:4] F,4G,4 | 
[V:1] c4A4 | 
[V:2] c4a4 | 
[V:3] e2c4d2- | 
[V:4] A,6F,2 | 
[V:1] B4c4 | 
[V:2] g2b2a4 | 
[V:3] d2e4f2- | 
[V:4] G,4A,4 | 
[V:1] d4B4 | 
[V:2] d3ef2g2 | 
[V:3] f2d4e2- | 
[V:4] _B,6G,2 | 
[V:1] c4d4 | 
[V:2] c4z2d2 | 
[V:3] e2f4g2- | 
[V:4] A,4B,4 | 
[V:1] e3de2f2- | 
[V:2] c2A3Bc2 | 
[V:3] g2a3ga2 | 
[V:4] C3B,C2A,2 | 
[V:1] fedcd2e2- | 
[V:2] d2G3AB2 | 
[V:3] f2g3fg2 | 
[V:4] B,3A,B,2G,2 | 
[V:1] edc4B2 | 
[V:2] c2A2G4 | 
[V:3] e2f2d4 | 
[V:4] A,2F,2G,4 | 
[V:1] c8 | 
[V:2] G2g3fed | 
[V:3] c8- | 
[V:4] C,8- | 
[V:1] z4G4 | 
[V:2] e4z4 | 
[V:3] c8 | 
[V:4] C,8 | 
[V:1] c6B2 | 
[V:2] c4f4- | 
[V:3] z8 | 
[V:4] z8 | 
[V:1] c4d4 | 
[V:2] f2e2f4 | 
[V:3] z8 | 
[V:4] z8 | 
[V:1] B6AG | 
[V:2] g4e4- | 
[V:3] z8 | 
[V:4] z8 | 
[V:1] G4G2A2- | 
[V:2] e2dcc4 | 
[V:3] z8 | 
[V:4] z8 | 
[V:1] AGc4B2 | 
[V:2] B2c2d4 | 
[V:3] z4G4 | 
[V:4] z8 | 
[V:1] c8 | 
[V:2] c4z4 | 
[V:3] c6B2 | 
[V:4] C,4F,4- | 
[V:1] z8 | 
[V:2] z8 | 
[V:3] c4d4 | 
[V:4] F,2E,2F,4 | 
[V:1] z8 | 
[V:2] z8 | 
[V:3] B6AG | 
[V:4] G,4E,4- | 
[V:1] z8 | 
[V:2] z8 | 
[V:3] G4G2A2- | 
[V:4] E,2D,C,C,4 | 
[V:1] z4d4 | 
[V:2] z8 | 
[V:3] AGc4B2 | 
[V:4] B,,2C,2D,4 | 
[V:1] e4c4 | 
[V:2] z8 | 
[V:3] c8 | 
[V:4] C,8 | 
[V:1] d4B4 | 
[V:2] z4g4 | 
[V:3] z8 | 
[V:4] z8 | 
[V:1] c3BA4 | 
[V:2] a4f4 | 
[V:3] z4d4 | 
[V:4] z8 | 
[V:1] G8 | 
[V:2] g4e4 | 
[V:3] e4c4 | 
[V:4] z8 | 
[V:1] z8 | 
[V:2] f3ed4 | 
[V:3] d4B4 | 
[V:4] z4G,4 | 
[V:1] z8 | 
[V:2] c3Bc2d2- | 
[V:3] c3BA4 | 
[V:4] A,4F,4 | 
[V:1] z4G4 | 
[V:2] dBB4c2- | 
[V:3] G4g4 | 
[V:4] G,4E,4 | 
[V:1] c4d4 | 
[V:2] cBA4GF | 
[V:3] a4f4 | 
[V:4] F,3E,D,4 | 
[V:1] e4d2e2- | 
[V:2] c4B4 | 
[V:3] g4z2g2 | 
[V:4] C,4G,4 | 
[V:1] ecc4d2- | 
[V:2] c4A4 | 
[V:3] e2f3edc | 
[V:4] A,4F,4 | 
[V:1] dBB4e2 | 
[V:2] G8 | 
[V:3] B2G2g4 | 
[V:4] G,4E,4 | 
[V:1] dcc4B2 | 
[V:2] z8 | 
[V:3] f2e2d4 | 
[V:4] F,4G,4 | 
[V:1] c4z4 | 
[V:2] z8 | 
[V:3] c8 | 
[V:4] C,8 | 
[V:1] c4c2c2 | 
[V:2] c4c2c2 | 
[V:3] z8 | 
[V:4] z8 | 
[V:1] d4B2c2- | 
[V:2] g4g2a2- | 
[V:3] z8 | 
[V:4] z8 | 
[V:1] c2B2A4 | 
[V:2] agg4^f2 | 
[V:3] z8 | 
[V:4] z8 | 
[V:1] G8 | 
[V:2] g8 | 
[V:3] c4c2c2 | 
[V:4] C,4C,2C,2 | 
[V:1] z8 | 
[V:2] z8 | 
[V:3] d4B2c2- | 
[V:4] G,4G,2A,2- | 
[V:1] z8 | 
[V:2] z8 | 
[V:3] c2B2A4 | 
[V:4] A,G,G,4^F,2 | 
[V:1] B4B2B2 | 
[V:2] g3fe2d2 | 
[V:3] G8 | 
[V:4] G,8 | 
[V:1] c4B2A2- | 
[V:2] c4d2f2- | 
[V:3] z8 | 
[V:4] z8 | 
[V:1] A2G2F4 | 
[V:2] fee4d2 | 
[V:3] z8 | 
[V:4] z8 | 
[V:1] E4z2E2- | 
[V:2] e6dc | 
[V:3] z8 | 
[V:4] z8 | 
[V:1] E2DCG4 | 
[V:2] g4c4 | 
[V:3] z4e4 | 
[V:4] z4C,4 | 
[V:1] z8 | 
[V:2] z8 | 
[V:3] e4d4 | 
[V:4] G,6F,2- | 
[V:1] z8 | 
[V:2] z8 | 
[V:3] f4e4 | 
[V:4] F,2E,D,C,2G,2- | 
[V:1] z8 | 
[V:2] z8 | 
[V:3] d3cd2e2- | 
[V:4] G,2F,4E,D, | 
[V:1] z8 | 
[V:2] z8 | 
[V:3] edc4B2 | 
[V:4] C,2E,2D,4 | 
[V:1] z8 | 
[V:2] z8 | 
[V:3] [M:3/1](3:2:1c12 | 
[V:4] C,8 | 
[V:1] (3G4G4G4 | 
[V:2] (3e4e4e4 | 
[V:3] (3z4c4c4 | 
[V:4] [M:3/1](3C4C4C4 | 
[V:1] (3:2:2A8A4 | 
[V:2] (3:2:4f6e2d2c2 | 
[V:3] (3:2:2c4d8 | 
[V:4] (3:2:2F,8F,4 | 
[V:1] (3:2:2B8B4 | 
[V:2] (3:2:2B8B4 | 
[V:3] (3:2:2d4e8 | 
[V:4] (3:2:2G,8G,4 | 
[V:1] (3:2:2G8z4 | 
[V:2] (3:2:2c8z4 | 
[V:3] (3:2:2e4c8 | 
[V:4] (3:2:2C,8z4 | 
[V:1] (3G4G4G4 | 
[V:2] (3e4e4e4 | 
[V:3] (3z4c4c4 | 
[V:4] (3C4C4C4 | 
[V:1] (3:2:2A8A4 | 
[V:2] (3:2:4f6e2d2c2 | 
[V:3] (3:2:2c4d8 | 
[V:4] (3:2:2F,8F,4 | 
[V:1] (3:2:2B8B4 | 
[V:2] (3:2:2B8B4 | 
[V:3] (3:2:2d4e8 | 
[V:4] (3:2:2G,8G,4 | 
[V:1] (3:2:2G8G4 | 
[V:2] (3:2:2c8g4 | 
[V:3] (3:2:2e4c8 | 
[V:4] (3:2:2C,8C4 | 
[V:1] (3:2:2c8c4 | 
[V:2] (3:2:2a8a4 | 
[V:3] (3:2:2c4f8 | 
[V:4] (3:2:2A,8A,4 | 
[V:1] (3:2:2A8A4 | 
[V:2] (3:2:2f8f4 | 
[V:3] (3:2:2f4d8 | 
[V:4] (3:2:2D8D4 | 
[V:1] (3:2:4d6c2B2A2 | 
[V:2] (3:2:2g8d4 | 
[V:3] (3d4g6f2 | 
[V:4] (3:2:2G,8G,4 | 
[V:1] (3:2:2G8G4 | 
[V:2] (3:2:2e8g4 | 
[V:3] (3e2d2c8 | 
[V:4] (3:2:2C8C4 | 
[V:1] (3:2:2c8c4 | 
[V:2] (3:2:4a6g2f2e2 | 
[V:3] (3:2:2c4f8 | 
[V:4] (3:2:2A,8A,4 | 
[V:1] (3d4e6d2 | 
[V:2] (3d4B4c4 | 
[V:3] (3f4g4e4 | 
[V:4] (3B,4G,4A,4 | 
[V:1] (3:2:2c8B4 | 
[V:2] (3:2:2A4G8 | 
[V:3] (3:2:2f4d8 | 
[V:4] (3:2:2F,8G,4 | 
[V:1] c8 | 
[V:2] g4e4- | 
[V:3] [M:2/1]c8- | 
[V:4] [M:2/1]C,8- | 
[V:1] z8 | 
[V:2] e2dcc4 | 
[V:3] c8 | 
[V:4] C,8 | 
[V:1] d8 | 
[V:2] z4g4 | 
[V:3] z8 | 
[V:4] z8 | 
[V:1] d4d4 | 
[V:2] g4f4 | 
[V:3] z8 | 
[V:4] z8 | 
[V:1] e6dc | 
[V:2] e2dcg4 | 
[V:3] z8 | 
[V:4] z8 | 
[V:1] B4B2d2- | 
[V:2] G8 | 
[V:3] d8 | 
[V:4] z4G,4 | 
[V:1] d2cBA4 | 
[V:2] z4A4 | 
[V:3] d4d4 | 
[V:4] G,4F,4 | 
[V:1] G8 | 
[V:2] B2c4c2 | 
[V:3] e6dc | 
[V:4] E,4C,4 | 
[V:1] z8 | 
[V:2] dcBAG4 | 
[V:3] B4B2d2- | 
[V:4] G,6F,E, | 
[V:1] z8 | 
[V:2] z8 | 
[V:3] d2cBA4 | 
[V:4] F,2G,4^F,2 | 
[V:1] d8 | 
[V:2] z4g4 | 
[V:3] G8 | 
[V:4] G,8 | 
[V:1] d4d4 | 
[V:2] g4f4 | 
[V:3] z8 | 
[V:4] z8 | 
[V:1] e6dc | 
[V:2] e2dcg4 | 
[V:3] z8 | 
[V:4] z8 | 
[V:1] B4B2d2- | 
[V:2] G8 | 
[V:3] d8 | 
[V:4] z4G,4 | 
[V:1] d2cBA4 | 
[V:2] z4A4 | 
[V:3] d4d4 | 
[V:4] G,4F,4 | 
[V:1] G8 | 
[V:2] B2c4c2 | 
[V:3] e6dc | 
[V:4] E,4C,4 | 
[V:1] z8 | 
[V:2] dcBAG4 | 
[V:3] B4B2d2- | 
[V:4] G,6F,E, | 
[V:1] z8 | 
[V:2] z8 | 
[V:3] d2cBA4 | 
[V:4] F,2G,4^F,2 | 
[V:1] z4G4 | 
[V:2] z2g4fe | 
[V:3] G8 | 
[V:4] G,8 | 
[V:1] A4B4 | 
[V:2] f2d4e2- | 
[V:3] z8 | 
[V:4] z8 | 
[V:1] c6B2 | 
[V:2] e2dcd4 | 
[V:3] z4G4 | 
[V:4] z4G,4 | 
[V:1] c4d4 | 
[V:2] z2f4ed | 
[V:3] A4B4 | 
[V:4] F,3E,D,4 | 
[V:1] e8 | 
[V:2] g3fg2e2- | 
[V:3] c6B2 | 
[V:4] C,3D,E,F,G,2 | 
[V:1] z8 | 
[V:2] edcBA4 | 
[V:3] c4d4 | 
[V:4] A,2E,2F,4 | 
[V:1] z4e4 | 
[V:2] B2G2g4 | 
[V:3] e8 | 
[V:4] E,8 | 
[V:1] e4d4 | 
[V:2] z2g3fd2 | 
[V:3] z8 | 
[V:4] z8 | 
[V:1] c6d2- | 
[V:2] e2f3edc | 
[V:3] z8 | 
[V:4] z8 | 
[V:1] d4c4- | 
[V:2] B4c4 | 
[V:3] z4e4 | 
[V:4] z8 | 
[V:1] c2B6 | 
[V:2] G4z2g2- | 
[V:3] e4d4 | 
[V:4] z4G,4 | 
[V:1] c4z4 | 
[V:2] gfede2A2- | 
[V:3] c6d2- | 
[V:4] E,2A,3G,F,E, | 
[V:1] z8 | 
[V:2] A2B2G2A2- | 
[V:3] d4c4- | 
[V:4] F,2G,2E,2F,2- | 
[V:1] z8 | 
[V:2] A2G4F2 | 
[V:3] c2B6 | 
[V:4] F,E,D,C,D,4 | 
[V:1] z8 | 
[V:2] G8 | 
[V:3] c8 | 
[V:4] C,8 | 
[V:1] z8 | 
[V:2] z8 | 
[V:3] z8 | 
[V:4] z8 | 
[V:1] c8 | 
[V:2] g8 | 
[V:3] c8 | 
[V:4] C,8 | 
[V:1] d4e4 | 
[V:2] g4g4 | 
[V:3] B4B4 | 
[V:4] G,4G,4 | 
[V:1] f8 | 
[V:2] a8 | 
[V:3] A6B2 | 
[V:4] F,6E,D, | 
[V:1] e8 | 
[V:2] g8 | 
[V:3] c8 | 
[V:4] C,8 | 
[V:1] z4e4 | 
[V:2] z4g4 | 
[V:3] z4c4 | 
[V:4] z4C,4 | 
[V:1] e4d4 | 
[V:2] g4g4 | 
[V:3] c4B4 | 
[V:4] C4G,4 | 
[V:1] c8 | 
[V:2] e4f4 | 
[V:3] c8 | 
[V:4] A,8 | 
[V:1] !fermata!B8 | 
[V:2] !fermata!g8 | 
[V:3] !fermata!d8 | 
[V:4] !fermata!G,8 | 
[V:1] !fermata!c8 | 
[V:2] !fermata!g8 | 
[V:3] !fermata!c8 | 
[V:4] !fermata!C,8 | 
[V:1] c8 |]  
[V:2] g8 |]  
[V:3] c8 |]  
[V:4] C,8 |]  



